svg/Octicons/issue-closed.svg

<svg height="1024" width="1024" xmlns="http://www.w3.org/2000/svg">
  <path d="M704 316.03099999999995l-96 96L768 576l256-256-96-96L769.25 382.781 704 316.03099999999995zM512 832c-176.781 0-320-143.25-320-320 0-176.781 143.219-320 320-320 88.375 0 168.375 35.844 226.25 93.75l90.562-90.5C747.75 114.125 635.75 64 512 64 264.562 64 64 264.562 64 512c0 247.438 200.562 448 448 448 247.438 0 448-200.562 448-448L759.75 712.25C768.688 701.25 684.75 832 512 832zM576 256H448v320h128V256zM448 768h128V640H448V768z" />
</svg>

<svg xmlns="http://www.w3.org/2000/svg" viewBox="0 0 1024 1024"><path d="m704 316.03l-96 96 160 163.97 256-256-96-96-158.75 158.78-65.25-66.75m-192 515.97c-176.78 0-320-143.25-320-320 0-176.78 143.22-320 320-320 88.37 0 168.37 35.844 226.25 93.75l90.56-90.5c-81.06-81.12-193.06-131.25-316.81-131.25-247.44 0-448 200.56-448 448 0 247.44 200.56 448 448 448 247.44 0 448-200.56 448-448l-200.25 200.25c8.938-11-75 119.75-247.75 119.75m64-576h-128v320h128v-320m-128 512h128v-128h-128v128"/></svg>
